X: 43289
T: Woodcock, The
R: jig
M: 6/8
K: Gmajor
Bc|:dBG cGE|DED ~G3|B2B dBG|DcB ABc|
dBG cGE|DED ~G3|~B3 dcA|1 AGF ~G3:|2 AGF G2B||
dBG ecA|fdB g2g|e/f/ge dBG|DcB ABc|
dBG ecA|fdB g2g|e/f/ge dBA|AGF G3|
dB/c/d ~e3|~f3 g2g|e/f/ge dBG|DcB ABc|
dBG cGE|DED ~G3|~B3 dcA|AGF G3||

